X:296
L:1/8
M:4/4
K:C
 .abc ||[M:12/8][K:Emin] (3Tdef | gdB TB2 A TB2 A Bcd | efe edB dBA ABd | gdB TB2 A TB2 A Bcd | 
 efg fed e3 :: e2 f | gbg faf gfg edB | edB Bed BAA A2 (e/f/) | gbg faf gfg efg | aga Bcd e3 :|

